svg/UnitedNations-Flags/flag-eh.svg

<?xml version="1.0" encoding="UTF-8" standalone="no"?>
<!-- Created with Inkscape (http://www.inkscape.org/) --><svg height="256" id="svg607" inkscape:output_extension="org.inkscape.output.svg.inkscape" inkscape:version="0.46" sodipodi:docname="Flag_of_Western_Sahara.svg" sodipodi:version="0.32" version="1.0" width="256" xmlns="http://www.w3.org/2000/svg" xmlns:cc="http://creativecommons.org/ns#" xmlns:dc="http://purl.org/dc/elements/1.1/" xmlns:inkscape="http://www.inkscape.org/namespaces/inkscape" xmlns:rdf="http://www.w3.org/1999/02/22-rdf-syntax-ns#" xmlns:sodipodi="http://sodipodi.sourceforge.net/DTD/sodipodi-0.dtd" xmlns:svg="http://www.w3.org/2000/svg">
  <metadata>
    <rdf:RDF xmlns:cc="http://web.resource.org/cc/" xmlns:dc="http://purl.org/dc/elements/1.1/" xmlns:rdf="http://www.w3.org/1999/02/22-rdf-syntax-ns#">
      <cc:Work rdf:about="">
        <dc:title></dc:title>
        <dc:description></dc:description>
        <dc:subject>
          <rdf:Bag>
            <rdf:li>unsorted</rdf:li>
          </rdf:Bag>
        </dc:subject>
        <dc:publisher>
          <cc:Agent rdf:about="http://www.openclipart.org/">
            <dc:title>Open Clip Art Library, Source: Wikimedia Commons, Source: Wikimedia Commons, Source: Wikimedia Commons, Source: Wikimedia Commons</dc:title>
          </cc:Agent>
        </dc:publisher>
        <dc:creator>
          <cc:Agent>
            <dc:title></dc:title>
          </cc:Agent>
        </dc:creator>
        <dc:rights>
          <cc:Agent>
            <dc:title></dc:title>
          </cc:Agent>
        </dc:rights>
        <dc:date></dc:date>
        <dc:format>image/svg+xml</dc:format>
        <dc:type rdf:resource="http://purl.org/dc/dcmitype/StillImage"/>
        <cc:license rdf:resource="http://en.wikipedia.org/wiki/Public_domain"/>
        <dc:language>en</dc:language>
      </cc:Work>
    </rdf:RDF>
  </metadata>
  <sodipodi:namedview bordercolor="#666666" borderopacity="1.0" gridtolerance="10.0" guidetolerance="10.0" id="base" inkscape:current-layer="svg607" inkscape:cx="399.99994" inkscape:cy="200" inkscape:pageopacity="0.0" inkscape:pageshadow="2" inkscape:window-height="674" inkscape:window-width="799" inkscape:window-x="133" inkscape:window-y="240" inkscape:zoom="0.69875011" objecttolerance="10.0" pagecolor="#ffffff" showgrid="false"/>
  <defs id="defs609">
    <inkscape:perspective id="perspective14" inkscape:persp3d-origin="399.99994 : 133.33333 : 1" inkscape:vp_x="0 : 200 : 1" inkscape:vp_y="0 : 1000 : 0" inkscape:vp_z="799.99988 : 200 : 1" sodipodi:type="inkscape:persp3d"/>
  </defs>
  <rect height="42.666649" id="rect611" style="fill:#000000" width="256" x="0" y="64"/>
  <rect height="42.666649" id="rect612" style="fill:#008000" width="256" x="0" y="149.33331"/>
  <rect height="42.666649" id="rect643" style="fill:#ffffff" width="256" x="0" y="106.66666"/>
  <path d="M 0,64 L 85.333309,128.15443 L 0,192 L 0,64 L 0,64 L 0,64 L 0,64 z" id="path615" style="fill:#cc0000"/>
  <circle cx="120" cy="120" id="circle1456" r="60" sodipodi:cx="120" sodipodi:cy="120" sodipodi:rx="60" sodipodi:ry="60" style="fill:#cc0000" transform="matrix(0.2835979,0,0,0.2835979,93.968234,93.96826)"/>
  <circle cx="120" cy="120" id="circle3256" r="60" sodipodi:cx="120" sodipodi:cy="120" sodipodi:rx="60" sodipodi:ry="60" style="fill:#ffffff" transform="matrix(0.2835979,0,0,0.2835979,100.46981,93.96826)"/>
  <path d="M 123.41885,138.33404 L 130.69622,133.1318 L 137.91668,138.4127 L 135.2179,129.88394 L 142.47158,124.64874 L 133.52628,124.57992 L 130.78882,116.0635 L 127.9591,124.54972 L 119.01359,124.52148 L 126.21004,129.83507 L 123.41885,138.33404 z" id="path3258" style="fill:#cc0000"/>
</svg>

<svg xmlns="http://www.w3.org/2000/svg" viewBox="0 0 256 256"><path d="m0 64h256v42.667h-256z"/><path fill="#008000" d="m0 149.33h256v42.667h-256z"/><path fill="#fff" d="m0 106.67h256v42.666h-256z"/><g fill="#c00"><path d="m0 64l85.33 64.15-85.33 63.846v-128"/><circle cx="120" cy="120" r="60" transform="matrix(.2836 0 0 .2836 93.97 93.97)"/></g><circle cx="120" cy="120" r="60" transform="matrix(.2836 0 0 .2836 100.47 93.97)" fill="#fff"/><path d="m123.42 138.33l7.277-5.202 7.22 5.281-2.699-8.529 7.254-5.235-8.945-.069-2.737-8.516-2.83 8.486-8.946-.028 7.196 5.314-2.791 8.499" fill="#c00"/></svg>
